public/mdi/rotate-right.svg

<?xml version="1.0" encoding="UTF-8" standalone="no"?>
<svg
   version="1.1"
   id="mdi-rotate-right"
   width="24"
   height="24"
   viewBox="0 0 24 24"
   sodipodi:docname="rotate-right.svg"
   inkscape:version="1.1.1 (3bf5ae0d25, 2021-09-20)"
   xmlns:inkscape="http://www.inkscape.org/namespaces/inkscape"
   xmlns:sodipodi="http://sodipodi.sourceforge.net/DTD/sodipodi-0.dtd"
   xmlns="http://www.w3.org/2000/svg"
   xmlns:svg="http://www.w3.org/2000/svg">
  <defs
     id="defs7" />
  <sodipodi:namedview
     id="namedview5"
     pagecolor="#ffffff"
     bordercolor="#666666"
     borderopacity="1.0"
     inkscape:pageshadow="2"
     inkscape:pageopacity="0.0"
     inkscape:pagecheckerboard="0"
     showgrid="false"
     inkscape:zoom="34.708333"
     inkscape:cx="11.985594"
     inkscape:cy="11.985594"
     inkscape:window-width="1920"
     inkscape:window-height="1019"
     inkscape:window-x="0"
     inkscape:window-y="0"
     inkscape:window-maximized="1"
     inkscape:current-layer="mdi-rotate-right" />
  <path
     style="fill:#ffffff"
     d="M 15.55,5.55 11,1 V 4.07 C 7.06,4.56 4,7.92 4,12 c 0,4.08 3.05,7.44 7,7.93 V 17.91 C 8.16,17.43 6,14.97 6,12 6,9.03 8.16,6.57 11,6.09 V 10 Z"
     id="path848" />
  <path
     style="fill:#ffffff;fill-opacity:0.25"
     d="M 19.93,11 C 19.76,9.61 19.21,8.27 18.31,7.11 l -1.42,1.42 c 0.54,0.75 0.88,1.6 1.02,2.47"
     id="path846" />
  <path
     style="fill:#ffffff;fill-opacity:0.25"
     d="m 13,17.9 v 2.02 c 1.39,-0.17 2.74,-0.71 3.9,-1.61 L 15.46,16.87 C 14.71,17.41 13.87,17.76 13,17.9"
     id="path844" />
  <path
     style="fill:#ffffff;fill-opacity:0.25"
     d="m 16.89,15.5 1.42,1.39 c 0.9,-1.16 1.45,-2.5 1.62,-3.89 h -2.02 c -0.14,0.87 -0.48,1.72 -1.02,2.5"
     id="path2" />
</svg>

<?xml version="1.0" encoding="UTF-8"?><!DOCTYPE svg PUBLIC "-//W3C//DTD SVG 1.1//EN" "http://www.w3.org/Graphics/SVG/1.1/DTD/svg11.dtd"><svg xmlns="http://www.w3.org/2000/svg" xmlns:xlink="http://www.w3.org/1999/xlink" version="1.1" id="mdi-rotate-right" width="24" height="24" viewBox="0 0 24 24"><path d="M16.89,15.5L18.31,16.89C19.21,15.73 19.76,14.39 19.93,13H17.91C17.77,13.87 17.43,14.72 16.89,15.5M13,17.9V19.92C14.39,19.75 15.74,19.21 16.9,18.31L15.46,16.87C14.71,17.41 13.87,17.76 13,17.9M19.93,11C19.76,9.61 19.21,8.27 18.31,7.11L16.89,8.53C17.43,9.28 17.77,10.13 17.91,11M15.55,5.55L11,1V4.07C7.06,4.56 4,7.92 4,12C4,16.08 7.05,19.44 11,19.93V17.91C8.16,17.43 6,14.97 6,12C6,9.03 8.16,6.57 11,6.09V10L15.55,5.55Z" fill="white" /></svg>
